images/rlc.svg

<svg height="250" viewBox="0 0 250 250" width="250" xmlns="http://www.w3.org/2000/svg" xmlns:xlink="http://www.w3.org/1999/xlink"><linearGradient id="a"><stop offset="0" stop-color="#f9c300"/><stop offset="1" stop-color="#f2e900"/></linearGradient><linearGradient id="b" gradientUnits="userSpaceOnUse" x1="61.1100005" x2="146.3950045" xlink:href="#a" y1="205.225006" y2="119.9449995"/><linearGradient id="c" gradientUnits="userSpaceOnUse" x1="47.830002" x2="133.1100005" xlink:href="#a" y1="191.9450075" y2="106.6600035"/><linearGradient id="d" gradientUnits="userSpaceOnUse" x1="34.4449995" x2="119.7249985" xlink:href="#a" y1="178.5549925" y2="93.2750015"/><linearGradient id="e" gradientUnits="userSpaceOnUse" x1="52.9449995" x2="138.225006" xlink:href="#a" y1="197.0549925" y2="111.7750015"/><path d="m110.289062 157.453125c-3.816406-.007813-7.214843-2.429687-8.472656-6.035156-1.253906-3.609375-.097656-7.617188 2.886719-9.996094 2.984375-2.382813 7.148437-2.621094 10.386719-.597656.519531.328125 1.117187.5 1.730468.5.636719 0 1.261719-.171875 1.808594-.5 1.101563-.648438 1.746094-1.855469 1.679688-3.128907-.347656-4.828124 3.1875-9.070312 8-9.59375.332031-.039062.667968-.054687 1-.054687 1.699218-.003906 3.359375.480469 4.792968 1.386719.519532.328125 1.121094.503906 1.738282.5.636718 0 1.261718-.171875 1.804687-.5h.039063c1.078125-.65625 1.707031-1.847656 1.640625-3.109375-.351563-4.871094 3.25-9.132813 8.109375-9.605469.292968 0 .585937-.039062.875-.039062 4.972656 0 9 4.03125 9 9 0 4.972656-4.027344 9-9 9-1.699219.003906-3.363282-.476563-4.796875-1.382813-.519531-.328125-1.121094-.5-1.730469-.5-.640625-.003906-1.265625.167969-1.8125.5-1.097656.648437-1.742188 1.859375-1.671875 3.132813.03125.472656.03125.949218 0 1.421874-.375 4.285157-3.726563 7.707032-8 8.167969-.335937.035157-.667969.054688-1 .054688-1.699219 0-3.363281-.480469-4.796875-1.390625-.519531-.324219-1.121094-.5-1.734375-.5-.636719.003906-1.261719.175781-1.8125.5h-.039063c-1.074218.65625-1.703124 1.851562-1.632812 3.113281.035156.476563.035156.957031 0 1.4375-.382812 4.3125-3.78125 7.738281-8.089844 8.160156-.300781.035157-.601562.054688-.902344.058594zm0 0" fill="url(#b)"/><path d="m110.289062 134.648438c-4.804687.050781-8.800781-3.683594-9.078124-8.480469-.273438-4.796875 3.265624-8.964844 8.042968-9.46875.351563-.039063.699219-.058594 1.050782-.058594 1.699218 0 3.359374.480469 4.796874 1.390625.515626.324219 1.117188.496094 1.726563.5.640625-.003906 1.265625-.175781 1.8125-.5 1.101563-.648438 1.75-1.855469 1.679687-3.132812-.351562-4.871094 3.25-9.136719 8.113282-9.601563.289062-.03125.582031-.042969.871094-.042969 4.832031-.089844 8.871093 3.652344 9.152343 8.472656.28125 4.824219-3.292969 9.007813-8.101562 9.484376-.347657.039062-.699219.058593-1.050781.058593-1.695313 0-3.359376-.480469-4.792969-1.382812-.519531-.332031-1.121094-.507813-1.738281-.5-.636719-.003907-1.261719.167969-1.808594.5-1.097656.648437-1.742188 1.855469-1.675782 3.128906.039063.480469.039063.960937 0 1.4375-.378906 4.316406-3.777343 7.746094-8.089843 8.167969-.292969 0-.589844.042968-.882813.042968zm0 0" fill="url(#c)"/><path d="m116.664062 108.210938-.367187-1.855469c.628906-.261719.929687-.984375.671875-1.617188l1.417969-.941406c.0625.0625.132812.121094.207031.171875l-1.789062 4.277344c-.054688-.007813-.109376-.007813-.164063 0m.042969-6.761719 1.4375.949219c-.128906.308594-.128906.652344 0 .960937l-1.421875.941407c-.445313-.445313-1.152344-.492188-1.648438-.105469l-.75-.675781c.25-.394532.25-.894532 0-1.289063l.738281-.671875c.21875.167969.484376.257812.757813.257812.332031 0 .65625-.136718.886719-.375m-3.636719-3.089843c.070313-.03125.136719-.066407.203125-.105469l1.535156 1.597656c-.246094.347656-.300781.796875-.140625 1.191406.023438.058594.050781.117188.085938.167969l-.730469.65625c-.421875-.328125-1.007812-.34375-1.449219-.039062l-1.285156-1.28125c.308594-.445313.289063-1.039063-.050781-1.464844l.730468-.828125c.335938.199219.746094.230469 1.105469.078125m3.898438 2.699219c.265625-.632813-.03125-1.363282-.664063-1.628906h-.03125l.367188-1.925782c.078125 0 .15625-.007812.234375-.023437l1.738281 4.363281c-.078125.050781-.148438.105469-.214844.171875zm-12.628907-3.429688c.148438-.058594.609376-.308594.683594-.667968l1.707032.324218c-.011719.25.058593.5.199218.710938l-1.53125 1.535156c-.210937-.144531-.460937-.222656-.71875-.214844zm9.257813.296875c.164063-.226562.25-.5.238281-.78125l1.671875-.394531c.0625.140625.148438.265625.257813.375.121094.121094.265625.210938.425781.273438l-.367187 1.925781c-.171876-.003907-.339844.027343-.5.097656-.070313.027344-.140626.0625-.203126.101563zm-2.902344-3 1 1.398438c-.421875.445312-.457031 1.136719-.082031 1.621093l-.722656.824219c-.390625-.238281-.886719-.238281-1.277344 0l-.652344-.722656c.386719-.507813.328125-1.222656-.136718-1.660156l.957031-1.4375c.121093.058593.253906.085937.386719.082031.171874 0 .34375-.035156.5-.105469m-5.539063 1.574219c.007813-.078125.007813-.152344 0-.230469l4.054687-1.753906c.066407.089844.144532.175781.230469.25l-.941406 1.414063c-.300781-.125-.644531-.125-.949219 0-.304687.128906-.542968.371093-.667968.675781zm5.960937-1.824219c.058594-.070312.113282-.144531.160157-.222656l4.191406 1.578125c-.011719.089844-.011719.179688 0 .269531l-1.683594.394531c-.269531-.621093-.988281-.90625-1.613281-.644531h-.046875zm-.925781-2.128906c-.375.003906-.730469.179687-.960937.480469-.230469.296875-.3125.683594-.222656 1.046875l-4.039063 1.75c-.046875-.085938-.105469-.164063-.175781-.230469-.492188-.460938-1.261719-.449219-1.738282.027344-.476562.476562-.484374 1.242187-.023437 1.734375l.125.078125c-.992187 1.3125-1.601563 2.867187-1.769531 4.5-.03125.304687-.042969.617187-.042969.925781 0 4.972656 4.027344 9 9 9 .304687 0 .613281-.015625.917969-.050781 1.6875-.164063 3.289062-.816406 4.609375-1.875 0 0 .03125.054687.050781.078125.421875.351562 1.046875.324219 1.433594-.066407.390625-.390624.417968-1.011718.066406-1.433593-.042969-.046875-.09375-.085938-.144531-.121094l1.785156-4.300781c.667969.148437 1.332031-.273438 1.480469-.941406.152344-.671876-.269532-1.335938-.941406-1.484376-.097657-.023437-.199219-.035156-.300782-.027343-.074218-.007813-.152344-.007813-.230468 0l-1.75-4.367188c.585937-.359375.769531-1.128906.40625-1.714843-.363282-.585938-1.128907-.765626-1.714844-.40625-.171875.105468-.3125.253906-.414063.425781l-4.15625-1.574219c.121094-.675781-.324219-1.324219-1-1.449219h-.203125zm0 0" fill="url(#d)"/><path d="m125 197.5c-37.113281-.046875-68.160156-28.199219-71.828125-65.132812-3.667969-36.933594 21.234375-70.640626 57.613281-77.988282 36.378906-7.34375 72.410156 14.058594 83.363282 49.519532 10.953124 35.460937-6.734376 73.453124-40.921876 87.902343-8.929687 3.777344-18.53125 5.714844-28.226562 5.699219zm0-123.5c-24.34375-.003906-45.300781 17.1875-50.054688 41.0625-4.75 23.875 8.023438 47.785156 30.511719 57.101562 22.492188 9.316407 48.429688 1.453126 61.957031-18.789062 13.527344-20.238281 10.871094-47.214844-6.34375-64.429688-9.546874-9.597656-22.535156-14.980468-36.070312-14.945312zm0 0" fill="url(#e)"/></svg>

<svg xmlns="http://www.w3.org/2000/svg" xmlns:xlink="http://www.w3.org/1999/xlink" width="250px" height="250px" viewBox="0 0 250 250" version="1.1">
<defs>
<linearGradient id="linear0" gradientUnits="userSpaceOnUse" x1="122.220001" y1="410.450012" x2="292.790009" y2="239.889999" gradientTransform="matrix(0.5,0,0,0.5,0,0)">
<stop offset="0" style="stop-color:rgb(97.647059%,76.47059%,0%);stop-opacity:1;"/>
<stop offset="1" style="stop-color:rgb(94.901961%,91.37255%,0%);stop-opacity:1;"/>
</linearGradient>
<linearGradient id="linear1" gradientUnits="userSpaceOnUse" x1="95.660004" y1="383.890015" x2="266.220001" y2="213.320007" gradientTransform="matrix(0.5,0,0,0.5,0,0)">
<stop offset="0" style="stop-color:rgb(97.647059%,76.47059%,0%);stop-opacity:1;"/>
<stop offset="1" style="stop-color:rgb(94.901961%,91.37255%,0%);stop-opacity:1;"/>
</linearGradient>
<linearGradient id="linear2" gradientUnits="userSpaceOnUse" x1="68.889999" y1="357.109985" x2="239.449997" y2="186.550003" gradientTransform="matrix(0.5,0,0,0.5,0,0)">
<stop offset="0" style="stop-color:rgb(97.647059%,76.47059%,0%);stop-opacity:1;"/>
<stop offset="1" style="stop-color:rgb(94.901961%,91.37255%,0%);stop-opacity:1;"/>
</linearGradient>
<linearGradient id="linear3" gradientUnits="userSpaceOnUse" x1="105.889999" y1="394.109985" x2="276.450012" y2="223.550003" gradientTransform="matrix(0.5,0,0,0.5,0,0)">
<stop offset="0" style="stop-color:rgb(97.647059%,76.47059%,0%);stop-opacity:1;"/>
<stop offset="1" style="stop-color:rgb(94.901961%,91.37255%,0%);stop-opacity:1;"/>
</linearGradient>
</defs>
<g id="surface1">
<path style=" stroke:none;fill-rule:nonzero;fill:url(#linear0);" d="M 110.289062 157.453125 C 106.472656 157.445312 103.074219 155.023438 101.816406 151.417969 C 100.5625 147.808594 101.71875 143.800781 104.703125 141.421875 C 107.6875 139.039062 111.851562 138.800781 115.089844 140.824219 C 115.609375 141.152344 116.207031 141.324219 116.820312 141.324219 C 117.457031 141.324219 118.082031 141.152344 118.628906 140.824219 C 119.730469 140.175781 120.375 138.96875 120.308594 137.695312 C 119.960938 132.867188 123.496094 128.625 128.308594 128.101562 C 128.640625 128.0625 128.976562 128.046875 129.308594 128.046875 C 131.007812 128.042969 132.667969 128.527344 134.101562 129.433594 C 134.621094 129.761719 135.222656 129.9375 135.839844 129.933594 C 136.476562 129.933594 137.101562 129.761719 137.644531 129.433594 L 137.683594 129.433594 C 138.761719 128.777344 139.390625 127.585938 139.324219 126.324219 C 138.972656 121.453125 142.574219 117.191406 147.433594 116.71875 C 147.726562 116.71875 148.019531 116.679688 148.308594 116.679688 C 153.28125 116.679688 157.308594 120.710938 157.308594 125.679688 C 157.308594 130.652344 153.28125 134.679688 148.308594 134.679688 C 146.609375 134.683594 144.945312 134.203125 143.511719 133.296875 C 142.992188 132.96875 142.390625 132.796875 141.78125 132.796875 C 141.140625 132.792969 140.515625 132.964844 139.96875 133.296875 C 138.871094 133.945312 138.226562 135.15625 138.296875 136.429688 C 138.328125 136.902344 138.328125 137.378906 138.296875 137.851562 C 137.921875 142.136719 134.570312 145.558594 130.296875 146.019531 C 129.960938 146.054688 129.628906 146.074219 129.296875 146.074219 C 127.597656 146.074219 125.933594 145.59375 124.5 144.683594 C 123.980469 144.359375 123.378906 144.183594 122.765625 144.183594 C 122.128906 144.1875 121.503906 144.359375 120.953125 144.683594 L 120.914062 144.683594 C 119.839844 145.339844 119.210938 146.535156 119.28125 147.796875 C 119.316406 148.273438 119.316406 148.753906 119.28125 149.234375 C 118.898438 153.546875 115.5 156.972656 111.191406 157.394531 C 110.890625 157.429688 110.589844 157.449219 110.289062 157.453125 Z M 110.289062 157.453125 "/>
<path style=" stroke:none;fill-rule:nonzero;fill:url(#linear1);" d="M 110.289062 134.648438 C 105.484375 134.699219 101.488281 130.964844 101.210938 126.167969 C 100.9375 121.371094 104.476562 117.203125 109.253906 116.699219 C 109.605469 116.660156 109.953125 116.640625 110.304688 116.640625 C 112.003906 116.640625 113.664062 117.121094 115.101562 118.03125 C 115.617188 118.355469 116.21875 118.527344 116.828125 118.53125 C 117.46875 118.527344 118.09375 118.355469 118.640625 118.03125 C 119.742188 117.382812 120.390625 116.175781 120.320312 114.898438 C 119.96875 110.027344 123.570312 105.761719 128.433594 105.296875 C 128.722656 105.265625 129.015625 105.253906 129.304688 105.253906 C 134.136719 105.164062 138.175781 108.90625 138.457031 113.726562 C 138.738281 118.550781 135.164062 122.734375 130.355469 123.210938 C 130.007812 123.25 129.65625 123.269531 129.304688 123.269531 C 127.609375 123.269531 125.945312 122.789062 124.511719 121.886719 C 123.992188 121.554688 123.390625 121.378906 122.773438 121.386719 C 122.136719 121.382812 121.511719 121.554688 120.964844 121.886719 C 119.867188 122.535156 119.222656 123.742188 119.289062 125.015625 C 119.328125 125.496094 119.328125 125.976562 119.289062 126.453125 C 118.910156 130.769531 115.511719 134.199219 111.199219 134.621094 C 110.90625 134.621094 110.609375 134.664062 110.316406 134.664062 Z M 110.289062 134.648438 "/>
<path style=" stroke:none;fill-rule:nonzero;fill:url(#linear2);" d="M 116.664062 108.210938 L 116.296875 106.355469 C 116.925781 106.09375 117.226562 105.371094 116.96875 104.738281 L 118.386719 103.796875 C 118.449219 103.859375 118.519531 103.917969 118.59375 103.96875 L 116.804688 108.246094 C 116.75 108.238281 116.695312 108.238281 116.640625 108.246094 M 116.683594 101.484375 L 118.121094 102.433594 C 117.992188 102.742188 117.992188 103.085938 118.121094 103.394531 L 116.699219 104.335938 C 116.253906 103.890625 115.546875 103.84375 115.050781 104.230469 L 114.300781 103.554688 C 114.550781 103.160156 114.550781 102.660156 114.300781 102.265625 L 115.039062 101.59375 C 115.257812 101.761719 115.523438 101.851562 115.796875 101.851562 C 116.128906 101.851562 116.453125 101.714844 116.683594 101.476562 M 113.046875 98.386719 C 113.117188 98.355469 113.183594 98.320312 113.25 98.28125 L 114.785156 99.878906 C 114.539062 100.226562 114.484375 100.675781 114.644531 101.070312 C 114.667969 101.128906 114.695312 101.1875 114.730469 101.238281 L 114 101.894531 C 113.578125 101.566406 112.992188 101.550781 112.550781 101.855469 L 111.265625 100.574219 C 111.574219 100.128906 111.554688 99.535156 111.214844 99.109375 L 111.945312 98.28125 C 112.28125 98.480469 112.691406 98.511719 113.050781 98.359375 M 116.949219 101.058594 C 117.214844 100.425781 116.917969 99.695312 116.285156 99.429688 L 116.253906 99.429688 L 116.621094 97.503906 C 116.699219 97.503906 116.777344 97.496094 116.855469 97.480469 L 118.59375 101.84375 C 118.515625 101.894531 118.445312 101.949219 118.378906 102.015625 Z M 104.320312 97.628906 C 104.46875 97.570312 104.929688 97.320312 105.003906 96.960938 L 106.710938 97.285156 C 106.699219 97.535156 106.769531 97.785156 106.910156 97.996094 L 105.378906 99.53125 C 105.167969 99.386719 104.917969 99.308594 104.660156 99.316406 Z M 113.578125 97.925781 C 113.742188 97.699219 113.828125 97.425781 113.816406 97.144531 L 115.488281 96.75 C 115.550781 96.890625 115.636719 97.015625 115.746094 97.125 C 115.867188 97.246094 116.011719 97.335938 116.171875 97.398438 L 115.804688 99.324219 C 115.632812 99.320312 115.464844 99.351562 115.304688 99.421875 C 115.234375 99.449219 115.164062 99.484375 115.101562 99.523438 Z M 110.675781 94.925781 L 111.675781 96.324219 C 111.253906 96.769531 111.21875 97.460938 111.59375 97.945312 L 110.871094 98.769531 C 110.480469 98.53125 109.984375 98.53125 109.59375 98.769531 L 108.941406 98.046875 C 109.328125 97.539062 109.269531 96.824219 108.804688 96.386719 L 109.761719 94.949219 C 109.882812 95.007812 110.015625 95.035156 110.148438 95.03125 C 110.320312 95.03125 110.492188 94.996094 110.648438 94.925781 M 105.109375 96.5 C 105.117188 96.421875 105.117188 96.347656 105.109375 96.269531 L 109.164062 94.515625 C 109.230469 94.605469 109.308594 94.691406 109.394531 94.765625 L 108.453125 96.179688 C 108.152344 96.054688 107.808594 96.054688 107.503906 96.179688 C 107.199219 96.308594 106.960938 96.550781 106.835938 96.855469 Z M 111.070312 94.675781 C 111.128906 94.605469 111.183594 94.53125 111.230469 94.453125 L 115.421875 96.03125 C 115.410156 96.121094 115.410156 96.210938 115.421875 96.300781 L 113.738281 96.695312 C 113.46875 96.074219 112.75 95.789062 112.125 96.050781 L 112.078125 96.050781 Z M 110.144531 92.546875 C 109.769531 92.550781 109.414062 92.726562 109.183594 93.027344 C 108.953125 93.324219 108.871094 93.710938 108.960938 94.074219 L 104.921875 95.824219 C 104.875 95.738281 104.816406 95.660156 104.746094 95.59375 C 104.253906 95.132812 103.484375 95.144531 103.007812 95.621094 C 102.53125 96.097656 102.523438 96.863281 102.984375 97.355469 L 103.109375 97.433594 C 102.117188 98.746094 101.507812 100.300781 101.339844 101.933594 C 101.308594 102.238281 101.296875 102.550781 101.296875 102.859375 C 101.296875 107.832031 105.324219 111.859375 110.296875 111.859375 C 110.601562 111.859375 110.910156 111.84375 111.214844 111.808594 C 112.902344 111.644531 114.503906 110.992188 115.824219 109.933594 C 115.824219 109.933594 115.855469 109.988281 115.875 110.011719 C 116.296875 110.363281 116.921875 110.335938 117.308594 109.945312 C 117.699219 109.554688 117.726562 108.933594 117.375 108.511719 C 117.332031 108.464844 117.28125 108.425781 117.230469 108.390625 L 119.015625 104.089844 C 119.683594 104.238281 120.347656 103.816406 120.496094 103.148438 C 120.648438 102.476562 120.226562 101.8125 119.554688 101.664062 C 119.457031 101.640625 119.355469 101.628906 119.253906 101.636719 C 119.179688 101.628906 119.101562 101.628906 119.023438 101.636719 L 117.273438 97.269531 C 117.859375 96.910156 118.042969 96.140625 117.679688 95.554688 C 117.316406 94.96875 116.550781 94.789062 115.964844 95.148438 C 115.792969 95.253906 115.652344 95.402344 115.550781 95.574219 L 111.394531 94 C 111.515625 93.324219 111.070312 92.675781 110.394531 92.550781 L 110.191406 92.550781 Z M 110.144531 92.546875 "/>
<path style=" stroke:none;fill-rule:nonzero;fill:url(#linear3);" d="M 125 197.5 C 87.886719 197.453125 56.839844 169.300781 53.171875 132.367188 C 49.503906 95.433594 74.40625 61.726562 110.785156 54.378906 C 147.164062 47.035156 183.195312 68.4375 194.148438 103.898438 C 205.101562 139.359375 187.414062 177.351562 153.226562 191.800781 C 144.296875 195.578125 134.695312 197.515625 125 197.5 Z M 125 74 C 100.65625 73.996094 79.699219 91.1875 74.945312 115.0625 C 70.195312 138.9375 82.96875 162.847656 105.457031 172.164062 C 127.949219 181.480469 153.886719 173.617188 167.414062 153.375 C 180.941406 133.136719 178.285156 106.160156 161.070312 88.945312 C 151.523438 79.347656 138.535156 73.964844 125 74 Z M 125 74 "/>
</g>
</svg>
